src/assets/icons/avatar-outline.svg

<svg width="1000" height="1000" viewBox="0 0 100 100" fill="none" xmlns="http://www.w3.org/2000/svg">
<path d="M37.3835 41.666C39.685 41.666 41.5508 39.8008 41.5508 37.5C41.5508 35.1992 39.685 33.334 37.3835 33.334C35.082 33.334 33.2162 35.1992 33.2162 37.5C33.2162 39.8008 35.082 41.666 37.3835 41.666Z" fill="#495057"/>
<path d="M37.3835 41.666C39.685 41.666 41.5508 39.8008 41.5508 37.5C41.5508 35.1992 39.685 33.334 37.3835 33.334C35.082 33.334 33.2162 35.1992 33.2162 37.5C33.2162 39.8008 35.082 41.666 37.3835 41.666Z" fill="#495057"/>
<path d="M62.3835 41.666C64.685 41.666 66.5508 39.8008 66.5508 37.5C66.5508 35.1992 64.685 33.334 62.3835 33.334C60.082 33.334 58.2162 35.1992 58.2162 37.5C58.2162 39.8008 60.082 41.666 62.3835 41.666Z" fill="#495057"/>
<path d="M62.3835 41.666C64.685 41.666 66.5508 39.8008 66.5508 37.5C66.5508 35.1992 64.685 33.334 62.3835 33.334C60.082 33.334 58.2162 35.1992 58.2162 37.5C58.2162 39.8008 60.082 41.666 62.3835 41.666Z" fill="#495057"/>
<path fill-rule="evenodd" clip-rule="evenodd" d="M49.4564 87.8731C49.4033 87.8731 49.3502 87.8731 49.2962 87.8731V87.8628C49.3493 87.8628 49.4033 87.8628 49.4564 87.8731Z" fill="#495057"/>
<path fill-rule="evenodd" clip-rule="evenodd" d="M50.1171 66.9C50.1311 66.9 50.1451 66.9 50.159 66.9C53.952 66.9 57.419 65.51 60.023 63.16C61.195 62.1 62.192 60.8501 62.94 59.4501C62.979 59.3801 63.018 59.3001 63.055 59.2301C63.379 58.6801 63.91 58.3301 64.508 58.3301C64.515 58.3301 64.5231 58.3301 64.5301 58.3301C65.5151 58.3301 66.315 59.2901 66.315 60.4701C66.315 60.7901 66.259 61.0801 66.159 61.3501C66.076 61.5201 65.99 61.6801 65.902 61.8401C62.892 67.4101 56.9681 71.1901 50.159 71.1901C50.066 71.1901 49.975 71.1901 49.883 71.1901C49.791 71.1901 49.699 71.1901 49.607 71.1901C42.797 71.1901 36.873 67.4101 33.864 61.8401C33.776 61.6801 33.69 61.5201 33.607 61.3501C33.506 61.0801 33.451 60.7901 33.451 60.4701C33.451 59.2901 34.25 58.3301 35.236 58.3301C35.243 58.3301 35.25 58.3301 35.257 58.3301C35.856 58.3301 36.386 58.6801 36.71 59.2301C36.748 59.3001 36.7861 59.3801 36.8251 59.4501C37.5731 60.8501 38.57 62.1 39.743 63.16C42.346 65.51 45.813 66.9 49.607 66.9C49.621 66.9 49.634 66.9 49.648 66.9C49.726 66.9 49.805 66.9 49.883 66.9C49.961 66.9 50.0391 66.9 50.1171 66.9Z" fill="#495057"/>
<path fill-rule="evenodd" clip-rule="evenodd" d="M87.5002 16.6699V83.34C87.5002 85.64 85.6332 87.5 83.3332 87.5H16.6662C14.3672 87.5 12.5002 85.64 12.5002 83.34V16.6699C12.5002 14.3699 14.3672 12.5 16.6662 12.5H83.3332C85.6332 12.5 87.5002 14.3699 87.5002 16.6699ZM83.3332 16.6699H16.6662V83.34H83.3332V16.6699Z" fill="#495057"/>
</svg>

<svg xmlns="http://www.w3.org/2000/svg" xmlns:xlink="http://www.w3.org/1999/xlink" width="100" height="100" fill="none">
    <g fill="blue">
        <use xlink:href="#B"/>
        <use xlink:href="#B" x="25"/>
        <path
                d="M49.456 87.873h-.16v-.01a.86.86 0 0 1 .16.01zm.661-20.973h.042c3.793 0 7.26-1.39 9.864-3.74 1.172-1.06 2.169-2.31 2.917-3.71.039-.07.078-.15.115-.22.324-.55.855-.9 1.453-.9h.022c.985 0 1.785.96 1.785 2.14a2.5 2.5 0 0 1-.156.88 11.25 11.25 0 0 1-.257.49c-3.01 5.57-8.934 9.35-15.743 9.35h-.276-.276c-6.81 0-12.734-3.78-15.743-9.35a11.25 11.25 0 0 1-.257-.49 2.48 2.48 0 0 1-.156-.88c0-1.18.799-2.14 1.785-2.14h.021c.599 0 1.129.35 1.453.9.038.07.076.15.115.22.748 1.4 1.745 2.65 2.918 3.71 2.603 2.35 6.07 3.74 9.864 3.74h.041.235.234zM87.5 16.67v66.67c0 2.3-1.867 4.16-4.167 4.16H16.666c-2.299 0-4.166-1.86-4.166-4.16V16.67c0-2.3 1.867-4.17 4.166-4.17h66.667c2.3 0 4.167 1.87 4.167 4.17zm-4.167 0H16.666v66.67h66.667V16.67z" fill-rule="evenodd"/>
    </g>
    <defs >
        <path
                id="B"
                d="M37.384 41.666a4.17 4.17 0 0 0 4.167-4.166 4.17 4.17 0 0 0-4.167-4.166 4.17 4.17 0 0 0-4.167 4.166 4.17 4.17 0 0 0 4.167 4.166z"/>
    </defs>
</svg>
